X:1
T:Title
%%score { ( 1 6 ) | ( 2 3 4 5 ) }
L:1/8
M:6/4
K:Ab
V:1 treble nm="Grand Piano"
V:6 treble 
V:2 bass 
V:3 bass 
V:4 bass 
V:5 bass 
V:1
 z6 z4[Q:1/4=114] E2 | [Ec]2 G2 B2 A2 E2 C2 | z2 G2 F2 E4 E2 | G2 E2 E2 [EA]2 E2 E2 | %4
 B2 F2 c2 z2 =D2 E2 | [Ec]2 G2 B2 A2 E2 C2 | z2 G2 F2 E4 E2 | F2 G2 A2 B2 c2 d2 | %8
[M:5/4] c2 A2 [DB]2 [CA]4 |[M:1/4] [CE]2 |[M:6/4] [Ec] [Ec]3 [=D_c]2 [E=c] [Ec]3 [_Gc]2 | %11
 [FB] [FA]3 [DF]2 [DF] [CE]3 [A,C]2 | [CE]2 [EA]2 B2 c2 _c2 =c2 | d2 d2 c2 B4 E2 | %14
 [Ec]2 [Ec]3 [=D_c] [E=c]2 [Ec]3 [_Gc] | [FB]2 [FA]2 [DF]2 [DF] [CE]3 [CE]2 | %16
 e e3 e2 d2 [EFc]2 [DFB]2 |[M:5/4] [CEA] [CEA]3 [B,DG]2 [A,CA]4 |] %18
V:2
 z12 | z6 .C6 | G,2 E,2 G,2 .[C,A,]6 | E,2 G,4 [C,A,]6 | [B,,A,]6 [E,G,E]2 [F,A,]2 [G,B,D]2 | %5
 z6 .C6 | G,2 E,2 G,2 .[C,A,]6 | z2 .B,4 z6 |[M:5/4] E2 C2 E,,2 [A,,E,]4 |[M:1/4] [A,,A,]2 | %10
[M:6/4] [A,,A,] [A,,A,]3 [A,,A,]2 [A,,A,] [A,,A,]3 [C,A,]2 | %11
 [D,D] [D,D]3 [D,A,]2 [A,,A,] [A,,A,]3 [A,,E,]2 | [A,,A,]2 [C,A,]2 [E,G,E]2 [A,E]2 [A,=D]2 [A,E]2 | %13
 [G,B,E]2 [G,B,E]2 [A,E]2 [E,G,E]4 [E,G,]2 | [A,,A,]2 [A,,A,]3 [A,,A,] [A,,A,]2 [A,,A,]3 [C,A,] | %15
 [D,D]2 [D,D]2 [D,A,]2 [A,,A,] [A,,A,]3 [A,,A,]2 | %16
 [A,CE] [A,CE]3 [=A,C_G]2 [B,F]2[K:bass] C,2 D,2 |[M:5/4] E, E,3 E,2 A,,4 |] %18
V:3
 x12 | A,2 E4 z2 A,2 [=A,,_G,]2 | B,,6 z6 | B,,6 z6 | x12 | A,2 D4 z2 A,2 [=A,,_G,]2 | B,,6 z6 | %7
 [A,D]2 E2- [C,A,E]2 [D,A,]2 [C,=A,]2 [B,,B,]2 |[M:5/4] E,6 z4 |[M:1/4] x2 |[M:6/4] x12 | x12 | %12
 x12 | x12 | x12 | x12 | x8[K:bass] x4 |[M:5/4] x10 |] %18
V:4
 x12 | z2 E,4- E,2 z2 z2 | x12 | x12 | x12 | z2 E,4- E,2 z2 z2 | x12 | .D,6 z6 |[M:5/4] x10 | %9
[M:1/4] x2 |[M:6/4] x12 | x12 | x12 | x12 | x12 | x12 | x8[K:bass] x4 |[M:5/4] x10 |] %18
V:5
 x12 | A,,12 | x12 | x12 | x12 | A,,12 | x12 | x12 |[M:5/4] x10 |[M:1/4] x2 |[M:6/4] x12 | x12 | %12
 x12 | x12 | x12 | x12 | x8[K:bass] x4 |[M:5/4] x10 |] %18
V:6
 x12 | x12 | D6 z6 | D6 z6 | .=D6 .B6 | x12 | D6 z6 | z6 F6 |[M:5/4] x10 |[M:1/4] x2 |[M:6/4] x12 | %11
 x12 | x12 | x12 | x12 | x12 | x12 |[M:5/4] x10 |] %18

